packages/icons/raw/imported/GenericMention.svg

<svg width="32" height="32" viewBox="0 0 32 32" fill="none" xmlns="http://www.w3.org/2000/svg">
<path d="M20.8846 12.3462C20.8846 12.07 20.6608 11.8462 20.3846 11.8462C20.1085 11.8462 19.8846 12.07 19.8846 12.3462H20.8846ZM16 26C16.2761 26 16.5 25.7761 16.5 25.5C16.5 25.2239 16.2761 25 16 25V26ZM16 19.8846C13.8546 19.8846 12.1154 18.1454 12.1154 16H11.1154C11.1154 18.6977 13.3023 20.8846 16 20.8846V19.8846ZM19.8846 16C19.8846 18.1454 18.1454 19.8846 16 19.8846V20.8846C18.6977 20.8846 20.8846 18.6977 20.8846 16H19.8846ZM16 12.1154C18.1454 12.1154 19.8846 13.8546 19.8846 16H20.8846C20.8846 13.3023 18.6977 11.1154 16 11.1154V12.1154ZM16 11.1154C13.3023 11.1154 11.1154 13.3023 11.1154 16H12.1154C12.1154 13.8546 13.8546 12.1154 16 12.1154V11.1154ZM19.8846 12.3462V19.2885H20.8846V12.3462H19.8846ZM22.5769 21.3462C21.9528 21.3462 21.5652 21.1862 21.322 20.9171C21.069 20.6372 20.8846 20.1436 20.8846 19.2885H19.8846C19.8846 20.2603 20.0901 21.0455 20.5801 21.5877C21.0799 22.1407 21.7885 22.3462 22.5769 22.3462V21.3462ZM16 25C11.0294 25 7 20.9706 7 16H6C6 21.5228 10.4772 26 16 26V25ZM7 16C7 11.0294 11.0294 7 16 7V6C10.4772 6 6 10.4772 6 16H7ZM16 7C20.9706 7 25 11.0294 25 16H26C26 10.4772 21.5228 6 16 6V7ZM25 16C25 16.963 24.8233 18.3621 24.3928 19.5022C23.945 20.6883 23.3282 21.3462 22.5769 21.3462V22.3462C24.0179 22.3462 24.8627 21.0886 25.3283 19.8554C25.8113 18.5763 26 17.0522 26 16H25Z" fill="black"/>
</svg>

<svg width="32" height="32" fill="none" xmlns="http://www.w3.org/2000/svg"><path d="M20.885 12.346a.5.5 0 1 0-1 0h1ZM16 26a.5.5 0 0 0 0-1v1Zm0-6.115A3.885 3.885 0 0 1 12.115 16h-1A4.885 4.885 0 0 0 16 20.885v-1ZM19.885 16A3.885 3.885 0 0 1 16 19.885v1A4.885 4.885 0 0 0 20.885 16h-1ZM16 12.115A3.885 3.885 0 0 1 19.885 16h1A4.885 4.885 0 0 0 16 11.115v1Zm0-1A4.885 4.885 0 0 0 11.115 16h1A3.885 3.885 0 0 1 16 12.115v-1Zm3.885 1.231v6.942h1v-6.942h-1Zm2.692 9c-.624 0-1.012-.16-1.255-.429-.253-.28-.437-.773-.437-1.629h-1c0 .972.205 1.758.695 2.3.5.553 1.209.758 1.997.758v-1ZM16 25a9 9 0 0 1-9-9H6c0 5.523 4.477 10 10 10v-1Zm-9-9a9 9 0 0 1 9-9V6C10.477 6 6 10.477 6 16h1Zm9-9a9 9 0 0 1 9 9h1c0-5.523-4.477-10-10-10v1Zm9 9c0 .963-.177 2.362-.607 3.502-.448 1.186-1.065 1.844-1.816 1.844v1c1.44 0 2.286-1.257 2.751-2.49.483-1.28.672-2.804.672-3.856h-1Z" fill="#000"/></svg>
